X:132
M:C
L:1/8
K:E Minor
e>EE>F G>A B<G|F>d A<B G>A F<D|e>EE>F G>A B<f|g>e f<^d B<e e2|
e>EE>F G>AB>G|F<d A>d G>A F<D|E<GF<A G>B A<c|
e>f g<e B<bA<a|g>ef>^d B<ee<B|e>f g<e B<bg<e|f>e d<g f/g/a/f/ df|
g<ef<^d e>B A<F|G>A B/A/G/F/ G>EE>B||

